X:1
T:Title
%%score { ( 1 2 ) | ( 3 4 ) }
L:1/8
M:4/4
K:G
V:1 treble nm="Grand Piano"
V:2 treble 
V:3 treble 
V:4 treble 
V:1
 z4 z2[Q:1/4=100] z B | d3 e d2 B2 | [FA]2 [FB]2 G2 z A | B3 B d2 BG |[M:3/4] [DFA]6 |[M:1/4] z B | %6
[M:4/4] d3 e d2 B2 |[M:9/8] [FA]2 [=FG]- [FG] [Ec]2- [Ec][Ec][Ge] | %8
[M:4/4] [Gd]2 [DGB]G [CFA]3 [CDF] |[M:3/4] [B,DG]6 |[M:1/4] G2 |[M:4/4] B2 G4 B2 | d2 B4 d2 | %13
 [Ge]4 [Gd]2 [GB]2 |[M:3/4] [FA]6 |[M:1/4] [FA]2 |[M:4/4] B2 G4 B2 | [Ed]2 [Ec]4 [^Dc]2 | %18
 [DB]4 [FA]3 [FA] |[M:3/4] G6 |] %20
V:2
 z4 z2 G2 | x8 | z4 z2 G2 | x8 |[M:3/4] x6 |[M:1/4] [B,G]2 |[M:4/4] x8 |[M:9/8] x9 |[M:4/4] x8 | %9
[M:3/4] x6 |[M:1/4] x2 |[M:4/4] x8 | x8 | x8 |[M:3/4] x6 |[M:1/4] x2 |[M:4/4] x8 | x8 | x8 | %19
[M:3/4] x6 |] %20
V:3
 z4 z2 [G,B,]2 | [G,B,G]3 [G,CG] [G,B,G]2 [G,DG]2 | [D,C]2 [D,D]2 [G,B,]2 B,C | %3
 [G,DG]3 [G,DG] [G,B,G]2 [DG]B, |[M:3/4][K:bass] D,6 |[M:1/4] G,2 | %6
[M:4/4][K:treble] [G,B,G]3 [G,CG] [G,B,G]2 [G,DG]2 | %7
[M:9/8][K:bass] [D,D]2 [G,B,]- [G,B,] [C,G,]2- [C,G,] [C,C]2 |[M:4/4] [D,B,]2 z B, D,3 D, | %9
[M:3/4] G,,6 |[M:1/4][K:treble] [G,B,D]2 |[M:4/4] [G,D]2 [G,B,D]4 [G,G]2 | %12
 [G,B,G]2 [G,DG]4 [G,B,G]2 | [C,C]4 [G,B,]2 [G,D]2 |[M:3/4] [D,D]6 |[M:1/4] [D,D]2 | %16
[M:4/4][K:treble] [G,DG]2 [G,B,D]4 [G,=F]2 | [C,G,]2 [C,G,]4 [C,G,]2 | [D,G,]4 [D,C]3 [D,C] | %19
[M:3/4] [G,B,]6 |] %20
V:4
 x8 | x8 | z4 z2 G,2 | z4 z2 G,2 |[M:3/4][K:bass] x6 |[M:1/4] x2 |[M:4/4][K:treble] x8 | %7
[M:9/8][K:bass] x9 |[M:4/4] z2 D,2 z4 |[M:3/4] x6 |[M:1/4][K:treble] x2 |[M:4/4] x8 | x8 | x8 | %14
[M:3/4] x6 |[M:1/4] x2 |[M:4/4][K:treble] x8 | x8 | x8 |[M:3/4] x6 |] %20

